X:62
M:2/4
L:1/8
K:D
| Bc/B/ AF | de fe | dB AF | A2 FE | 
| fb ba | fe f>e | de fg | a2 fe | 
fb ba | fe f>e | dB BA | B2 B2 :|| 

